X:1
T:I've Been Work On The Railroad
T:(The Eyes of Texas Are Upon You)
C:Traditional
M:4/4
L:1/8
K:D
|A,2|"D"D3 A, D3/2A,/2 D3/2E/2|"D7"F4 D4
w:Oh, I've been work-ing on the rail-road,
|"G"G3 G "Gm"D2 E2|"D"F8|D3 A,2 D3/2A,/2 D3/2E/2
w:All the live long day. I've been work-ing on the
|"Bm"F4 D2 F3/2F/2|"E7"F2 E2 E2 F2
w:rail-road, just to pass the time a
|"A"E4-"A7"E4|E3 E D3/2E/2 F3/2E/2|"D"D4 C4
w:way._ Can't you hear the whis-tle blow-in'?
|"G"G2 G3/2G/2 D3/2D/2 E3/2E/2|"F#7"F8
w:Rise up so ear-ly in the morn.
|"G"B,3 C2 D3/2C/2 E3/2B,/2|"D"A,4 "Bm"D4
w:Can't you hear the cap-tain shout-in'
|"D"F2 G2 "A7"F2 E2|"D"D8|:"D"A,A,A,A, D4
w:"Di-nah, blow your horn!" Di-nah won't you blow?
|"G"B,B,B,B, "Em"E4|"A7"CCCC B,2 C2
w:Di-nah won't you blow? Di-nah won't you blow your
|1"D"D2 "A"E2 "D"F4:|2"D"D6 z2||FFFF DD D2|A,4 D4
w:horn? __horn? Some-one's in the kitch-en with Di-nah,
|FFFF DD D2|"A"E2 C2 "Em"B,2 "A"A,2
w:Some-one's in the kitch-en I know, ___
|"D"FFFF DD D2|"G"G4 "Gm"!fermata!B4|"D"AAAA "A7"G2 E2
w:Some-one's in the kitch-en with Di-nah, Strum-min' on the old ban-
|"D"D8||"D"F4 D4|(3A,A,A, A,2 D4|F2 F2 (3DDD D2
w:jo. "Fee fi fid-dle-ee i o, Fee fi fid-dle-ee i
|"A"E2 C2 "Em"B,2 "A"A,2|"D"F4 D4|"G"(3GGG G2 "Gm"!fermata!B4
w:o, ___Fee fe fid-dle-ee i o"
|"D"AAAA "A7"G2 E2|"D"D6||
w:Strum-min' on the old ban-jo!
